X:3836
L:1/4
Q:3/4=60
M:6/4
K:G
 (d/4c/4B/) | G G G G G g | G G B A/G/ F/4G/4A/ A | (d/4c/4B/) G G G G G | 
 g (f/g/a/) (g/f/e/) d d d || (a/4g/4f/) | d d d d d a | f g a b f d | e g e c d B | 
 c (B/4c/4d/4) A | B G G G G G |]

